symbols/web/nature/materialsymbolsrounded/nature_gradN25fill1_24px.svg

<svg xmlns="http://www.w3.org/2000/svg" height="24" width="24"><path d="M6.15 21.775q-.4 0-.675-.275t-.275-.675q0-.375.275-.65t.675-.275h4.9v-4h-2q-2 0-3.412-1.412-1.413-1.413-1.413-3.413 0-1.475.813-2.688Q5.85 7.175 7.2 6.6q.225-1.85 1.588-3.075Q10.15 2.3 12 2.3t3.213 1.225Q16.575 4.75 16.8 6.6q1.375.55 2.175 1.775.8 1.225.8 2.7 0 2-1.4 3.413-1.4 1.412-3.425 1.412h-2v4h4.925q.375 0 .65.275t.275.65q0 .4-.275.675t-.65.275Z"/></svg>

<svg xmlns="http://www.w3.org/2000/svg" height="24" width="24"><path d="M6.15 21.775Q5.75 21.775 5.475 21.5Q5.2 21.225 5.2 20.825Q5.2 20.45 5.475 20.175Q5.75 19.9 6.15 19.9H11.05V15.9H9.05Q7.05 15.9 5.638 14.488Q4.225 13.075 4.225 11.075Q4.225 9.6 5.038 8.387Q5.85 7.175 7.2 6.6Q7.425 4.75 8.788 3.525Q10.15 2.3 12 2.3Q13.85 2.3 15.213 3.525Q16.575 4.75 16.8 6.6Q18.175 7.15 18.975 8.375Q19.775 9.6 19.775 11.075Q19.775 13.075 18.375 14.488Q16.975 15.9 14.95 15.9H12.95V19.9H17.875Q18.25 19.9 18.525 20.175Q18.8 20.45 18.8 20.825Q18.8 21.225 18.525 21.5Q18.25 21.775 17.875 21.775Z"/></svg>
